images/orbs.svg

<svg height="250" viewBox="0 0 250 250" width="250" xmlns="http://www.w3.org/2000/svg"><path d="m75.160156 159.882812c-.695312 2.773438-2.933594 3.445313-4.976562 1.488282l-39.699219-37.972656c-2.042969-1.953126-1.59375-4.417969 1.003906-5.480469l55.6875-22.816407c2.59375-1.0625 4.144531.335938 3.453125 3.105469zm0 0" fill="#42456f"/><path d="m42.355469 195.972656c-2.113281 1.863282-4.253907 1.09375-4.75-1.722656l-10.882813-61.714844c-.496094-2.8125.769532-3.519531 2.808594-1.570312l37.785156 36.140625c2.042969 1.953125 1.980469 5.082031-.132812 6.949219zm0 0" fill="#565c93"/><path d="m87.933594 82.816406c1.820312 2.167969 1.191406 4.8125-1.402344 5.875l-55.378906 22.691406c-2.59375 1.0625-3.921875-.265624-2.945313-2.949218l22.738281-62.644532c.976563-2.683593 3.261719-3.105468 5.085938-.9375zm0 0" fill="#565c93"/><path d="m29.914062 185.480469c.496094 2.8125-.339843 3.152343-1.855468.753906l-21.476563-33.996094c-1.519531-2.402343-1.390625-6.246093.277344-8.542969l9.59375-13.167968c1.667969-2.292969 3.445313-1.867188 3.941406.945312zm0 0" fill="#565c93"/><path d="m23.15625 104.589844c-.976562 2.683594-2.492188 2.65625-3.375-.058594l-7.335938-22.5625c-.882812-2.714844.089844-6.511719 2.15625-8.433594l26.148438-24.296875c2.070312-1.921875 2.964844-1.300781 1.996094 1.382813zm0 0" fill="#565c93"/><path d="m16.25 113.289062c.886719 2.71875.242188 6.8125-1.429688 9.109376l-7.507812 10.316406c-1.671875 2.292968-2.804688 1.839844-2.519531-1.007813l3.601562-35.8125c.285157-2.847656 1.238281-2.957031 2.125-.238281zm0 0" fill="#565c93"/><path d="m45.765625 32.632812c.929687 1.105469-.003906 3.585938-2.074219 5.507813l-11.765625 10.933594c-2.074219 1.921875-2.402343 1.613281-.734375-.683594l9.855469-13.59375c1.664063-2.296875 3.789063-3.269531 4.71875-2.164063zm0 0" fill="#565c93"/><path d="m120 223.253906c-1.410156 2.472656-3.859375 2.566406-5.4375.203125l-30.753906-45.875c-1.585938-2.359375-.605469-4.527343 2.175781-4.820312l61.796875-6.539063c2.777344-.292968 3.894531 1.488282 2.484375 3.960938zm0 0" fill="#565c93"/><path d="m107.121094 223.296875c1.578125 2.359375.710937 3.535156-1.933594 2.617187l-57.929688-20.175781c-2.644531-.921875-3.074218-3.207031-.960937-5.074219l24.824219-21.917968c2.117187-1.867188 5.144531-1.46875 6.726562.894531zm0 0" fill="#565c93"/><path d="m149.0625 155.5625c1.824219 2.171875 1.042969 4.1875-1.734375 4.480469l-62.710937 6.632812c-2.777344.292969-4.484376-1.734375-3.789063-4.503906l15.695313-62.589844c.695312-2.769531 2.753906-3.265625 4.582031-1.097656zm0 0" fill="#7fcce2"/><path d="m194.132812 209.195312c1.824219 2.171876 1.078126 4.429688-1.65625 5.019532l-63.8125 13.769531c-2.734374.589844-3.816406-.949219-2.410156-3.421875l30.101563-52.777344c1.410156-2.472656 4.054687-2.71875 5.875-.550781zm0 0" fill="#565c93"/><path d="m91.476562 244.394531c-2.460937 1.351563-6.1875.910157-8.277343-.984375l-29.621094-26.804687c-2.09375-1.894531-1.644531-2.691407 1-1.769531l50.699219 17.65625c2.640625.921874 2.789062 2.785156.332031 4.136718zm0 0" fill="#565c93"/><path d="m160.316406 246.945312c-2.160156 1.8125-5.964844 2.234376-8.457031.9375l-20.679687-10.777343c-2.484376-1.296875-2.289063-2.84375.445312-3.433594l54.96875-11.859375c2.730469-.589844 3.199219.410156 1.039062 2.222656zm0 0" fill="#565c93"/><path d="m102.734375 248.265625c-2.789063-.132813-3.058594-1.347656-.597656-2.703125l11.066406-6.082031c2.460937-1.355469 6.511719-1.398438 9.003906-.101563l16.164063 8.421875c2.492187 1.296875 2.242187 2.25-.546875 2.121094zm0 0" fill="#565c93"/><path d="m204.398438 221.414062c.929687 1.105469-.324219 3.117188-2.789063 4.464844l-14.570313 7.972656c-2.464843 1.347657-2.714843.96875-.550781-.84375l12.292969-10.304687c2.160156-1.820313 4.6875-2.394531 5.617188-1.289063zm0 0" fill="#565c93"/><path d="m167.570312 154.902344c-2.59375 1.0625-4.144531-.335938-3.449218-3.105469l15.464844-61.675781c.695312-2.773438 2.9375-3.445313 4.980468-1.492188l39.703125 37.976563c2.042969 1.953125 1.59375 4.417969-1 5.480469zm0 0" fill="#42456f"/><path d="m228.027344 117.46875c.492187 2.8125-.765625 3.519531-2.808594 1.570312l-37.789062-36.140624c-2.042969-1.953126-1.980469-5.082032.132812-6.949219l24.824219-21.917969c2.117187-1.867188 4.257812-1.09375 4.75 1.726562zm0 0" fill="#565c93"/><path d="m203.796875 204.21875c-.976563 2.683594-3.261719 3.105469-5.085937.933594l-31.902344-37.964844c-1.824219-2.171875-1.191406-4.8125 1.402344-5.875l55.378906-22.691406c2.597656-1.0625 3.921875.261718 2.945312 2.949218zm0 0" fill="#565c93"/><path d="m248.167969 97.765625c1.515625 2.40625 1.394531 6.25-.277344 8.542969l-9.589844 13.171875c-1.671875 2.296875-3.445312 1.867187-3.9375-.949219l-9.527343-54.007812c-.492188-2.816407.339843-3.152344 1.855468-.753907zm0 0" fill="#565c93"/><path d="m242.304688 168.035156c.882812 2.71875-.085938 6.511719-2.15625 8.433594l-26.152344 24.300781c-2.070313 1.921875-2.964844 1.300781-1.992188-1.382812l19.589844-53.964844c.972656-2.683594 2.492188-2.65625 3.378906.0625zm0 0" fill="#565c93"/><path d="m246.355469 154.105469c-.285157 2.847656-1.242188 2.957031-2.128907.238281l-5.730468-17.632812c-.886719-2.71875-.242188-6.8125 1.429687-9.109376l7.515625-10.316406c1.667969-2.292968 2.800782-1.84375 2.515625 1.007813zm0 0" fill="#565c93"/><path d="m213.699219 215.203125c-1.667969 2.300781-3.792969 3.273437-4.722657 2.167969-.929687-1.105469.003907-3.585938 2.074219-5.507813l11.761719-10.933593c2.070312-1.921876 2.402344-1.617188.738281.683593zm0 0" fill="#565c93"/><path d="m170.9375 72.421875c1.582031 2.359375.601562 4.527344-2.175781 4.824219l-61.792969 6.539062c-2.777344.292969-3.898438-1.488281-2.488281-3.960937l30.269531-53.070313c1.410156-2.472656 3.855469-2.566406 5.4375-.203125zm0 0" fill="#42456f"/><g fill="#565c93"><path d="m183.621094 71.253906c-2.113282 1.867188-5.140625 1.46875-6.722656-.894531l-29.265626-43.65625c-1.582031-2.359375-.714843-3.535156 1.929688-2.617187l57.925781 20.175781c2.644531.921875 3.074219 3.203125.960938 5.074219zm0 0"/><path d="m158.222656 150.421875c-.699218 2.769531-2.753906 3.265625-4.578125 1.097656l-47.964843-57.078125c-1.820313-2.167968-1.042969-4.183594 1.738281-4.480468l62.710937-6.632813c2.777344-.292969 4.480469 1.734375 3.785156 4.503906zm0 0"/><path d="m98.390625 78.222656c-1.410156 2.472656-4.050781 2.71875-5.878906.550782l-31.898438-37.960938c-1.824219-2.167969-1.078125-4.425781 1.652344-5.015625l63.8125-13.769531c2.738281-.589844 3.820313.953125 2.410156 3.421875zm0 0"/><path d="m149.472656 17.515625c-2.644531-.921875-2.792968-2.78125-.332031-4.136719l14.128906-7.769531c2.460938-1.355469 6.1875-.910156 8.28125.984375l29.617188 26.808594c2.09375 1.894531 1.640625 2.691406-1 1.773437zm0 0"/><path d="m68.152344 28.195312c-2.734375.589844-3.203125-.414062-1.042969-2.222656l27.320313-22.910156c2.160156-1.8125 5.964843-2.234375 8.457031-.9375l20.679687 10.777344c2.492188 1.296875 2.289063 2.84375-.441406 3.429687zm0 0"/><path d="m141.542969 10.523438c-2.460938 1.351562-6.511719 1.398437-9 .101562l-16.167969-8.425781c-2.488281-1.296875-2.242188-2.2539065.546875-2.121094l35.089844 1.660156c2.789062.132813 3.058593 1.347657.597656 2.703125zm0 0"/><path d="m55.96875 27.308594c-2.164062 1.8125-4.691406 2.390625-5.621094 1.285156-.929687-1.109375.324219-3.117188 2.789063-4.464844l14.574219-7.972656c2.464843-1.347656 2.714843-.96875.550781.847656zm0 0"/><path d="m37.257812 208.648438c1.078126-.949219 3.496094.003906 5.371094 2.125l10.667969 12.0625c1.875 2.121093 1.578125 2.460937-.667969.753906l-13.261718-10.101563c-2.238282-1.707031-3.1875-3.886719-2.109376-4.839843zm0 0"/><path d="m221.433594 46.050781c1.078125-.953125 3.042968.332031 4.355468 2.859375l7.78125 14.933594c1.3125 2.527344.945313 2.78125-.824218.5625l-10.054688-12.59375c-1.769531-2.214844-2.335937-4.808594-1.257812-5.761719zm0 0"/><path d="m215.378906 36.519531c2.238282 1.707031 3.191406 3.886719 2.113282 4.839844-1.078126.949219-3.496094-.003906-5.371094-2.125l-10.667969-12.0625c-1.875-2.121094-1.578125-2.460937.667969-.75zm0 0"/><path d="m32.0625 198.191406c1.765625 2.214844 2.332031 4.808594 1.253906 5.761719s-3.042968-.332031-4.355468-2.859375l-7.78125-14.9375c-1.316407-2.527344-.941407-2.78125.824218-.5625zm0 0"/></g></svg>

<!-- Generator: Adobe Illustrator 24.2.1, SVG Export Plug-In . SVG Version: 6.00 Build 0)  -->
<svg xmlns="http://www.w3.org/2000/svg" xmlns:xlink="http://www.w3.org/1999/xlink" width="250px" height="250px" viewBox="0 0 250 250" version="1.1">
<g id="surface1">
<path style=" stroke:none;fill-rule:nonzero;fill:rgb(25.882354%,27.058825%,43.529412%);fill-opacity:1;" d="M 75.160156 159.882812 C 74.464844 162.65625 72.226562 163.328125 70.183594 161.371094 L 30.484375 123.398438 C 28.441406 121.445312 28.890625 118.980469 31.488281 117.917969 L 87.175781 95.101562 C 89.769531 94.039062 91.320312 95.4375 90.628906 98.207031 Z M 75.160156 159.882812 "/>
<path style=" stroke:none;fill-rule:nonzero;fill:rgb(33.725491%,36.078432%,57.647061%);fill-opacity:1;" d="M 42.355469 195.972656 C 40.242188 197.835938 38.101562 197.066406 37.605469 194.25 L 26.722656 132.535156 C 26.226562 129.722656 27.492188 129.015625 29.53125 130.964844 L 67.316406 167.105469 C 69.359375 169.058594 69.296875 172.1875 67.183594 174.054688 Z M 42.355469 195.972656 "/>
<path style=" stroke:none;fill-rule:nonzero;fill:rgb(33.725491%,36.078432%,57.647061%);fill-opacity:1;" d="M 87.933594 82.816406 C 89.753906 84.984375 89.125 87.628906 86.53125 88.691406 L 31.152344 111.382812 C 28.558594 112.445312 27.230469 111.117188 28.207031 108.433594 L 50.945312 45.789062 C 51.921875 43.105469 54.207031 42.683594 56.03125 44.851562 Z M 87.933594 82.816406 "/>
<path style=" stroke:none;fill-rule:nonzero;fill:rgb(33.725491%,36.078432%,57.647061%);fill-opacity:1;" d="M 29.914062 185.480469 C 30.410156 188.292969 29.574219 188.632812 28.058594 186.234375 L 6.582031 152.238281 C 5.0625 149.835938 5.191406 145.992188 6.859375 143.695312 L 16.453125 130.527344 C 18.121094 128.234375 19.898438 128.660156 20.394531 131.472656 Z M 29.914062 185.480469 "/>
<path style=" stroke:none;fill-rule:nonzero;fill:rgb(33.725491%,36.078432%,57.647061%);fill-opacity:1;" d="M 23.15625 104.589844 C 22.179688 107.273438 20.664062 107.246094 19.78125 104.53125 L 12.445312 81.96875 C 11.5625 79.253906 12.535156 75.457031 14.601562 73.535156 L 40.75 49.238281 C 42.820312 47.316406 43.714844 47.9375 42.746094 50.621094 Z M 23.15625 104.589844 "/>
<path style=" stroke:none;fill-rule:nonzero;fill:rgb(33.725491%,36.078432%,57.647061%);fill-opacity:1;" d="M 16.25 113.289062 C 17.136719 116.007812 16.492188 120.101562 14.820312 122.398438 L 7.3125 132.714844 C 5.640625 135.007812 4.507812 134.554688 4.792969 131.707031 L 8.394531 95.894531 C 8.679688 93.046875 9.632812 92.9375 10.519531 95.65625 Z M 16.25 113.289062 "/>
<path style=" stroke:none;fill-rule:nonzero;fill:rgb(33.725491%,36.078432%,57.647061%);fill-opacity:1;" d="M 45.765625 32.632812 C 46.695312 33.738281 45.761719 36.21875 43.691406 38.140625 L 31.925781 49.074219 C 29.851562 50.996094 29.523438 50.6875 31.191406 48.390625 L 41.046875 34.796875 C 42.710938 32.5 44.835938 31.527344 45.765625 32.632812 Z M 45.765625 32.632812 "/>
<path style=" stroke:none;fill-rule:nonzero;fill:rgb(33.725491%,36.078432%,57.647061%);fill-opacity:1;" d="M 120 223.253906 C 118.589844 225.726562 116.140625 225.820312 114.5625 223.457031 L 83.808594 177.582031 C 82.222656 175.222656 83.203125 173.054688 85.984375 172.761719 L 147.78125 166.222656 C 150.558594 165.929688 151.675781 167.710938 150.265625 170.183594 Z M 120 223.253906 "/>
<path style=" stroke:none;fill-rule:nonzero;fill:rgb(33.725491%,36.078432%,57.647061%);fill-opacity:1;" d="M 107.121094 223.296875 C 108.699219 225.65625 107.832031 226.832031 105.1875 225.914062 L 47.257812 205.738281 C 44.613281 204.816406 44.183594 202.53125 46.296875 200.664062 L 71.121094 178.746094 C 73.238281 176.878906 76.265625 177.277344 77.847656 179.640625 Z M 107.121094 223.296875 "/>
<path style=" stroke:none;fill-rule:nonzero;fill:rgb(49.803922%,80.000001%,88.627452%);fill-opacity:1;" d="M 149.0625 155.5625 C 150.886719 157.734375 150.105469 159.75 147.328125 160.042969 L 84.617188 166.675781 C 81.839844 166.96875 80.132812 164.941406 80.828125 162.171875 L 96.523438 99.582031 C 97.21875 96.8125 99.277344 96.316406 101.105469 98.484375 Z M 149.0625 155.5625 "/>
<path style=" stroke:none;fill-rule:nonzero;fill:rgb(33.725491%,36.078432%,57.647061%);fill-opacity:1;" d="M 194.132812 209.195312 C 195.957031 211.367188 195.210938 213.625 192.476562 214.214844 L 128.664062 227.984375 C 125.929688 228.574219 124.847656 227.035156 126.253906 224.5625 L 156.355469 171.785156 C 157.765625 169.3125 160.410156 169.066406 162.230469 171.234375 Z M 194.132812 209.195312 "/>
<path style=" stroke:none;fill-rule:nonzero;fill:rgb(33.725491%,36.078432%,57.647061%);fill-opacity:1;" d="M 91.476562 244.394531 C 89.015625 245.746094 85.289062 245.304688 83.199219 243.410156 L 53.578125 216.605469 C 51.484375 214.710938 51.933594 213.914062 54.578125 214.835938 L 105.277344 232.492188 C 107.917969 233.414062 108.066406 235.277344 105.609375 236.628906 Z M 91.476562 244.394531 "/>
<path style=" stroke:none;fill-rule:nonzero;fill:rgb(33.725491%,36.078432%,57.647061%);fill-opacity:1;" d="M 160.316406 246.945312 C 158.15625 248.757812 154.351562 249.179688 151.859375 247.882812 L 131.179688 237.105469 C 128.695312 235.808594 128.890625 234.261719 131.625 233.671875 L 186.59375 221.8125 C 189.324219 221.222656 189.792969 222.222656 187.632812 224.035156 Z M 160.316406 246.945312 "/>
<path style=" stroke:none;fill-rule:nonzero;fill:rgb(33.725491%,36.078432%,57.647061%);fill-opacity:1;" d="M 102.734375 248.265625 C 99.945312 248.132812 99.675781 246.917969 102.136719 245.5625 L 113.203125 239.480469 C 115.664062 238.125 119.714844 238.082031 122.207031 239.378906 L 138.371094 247.800781 C 140.863281 249.097656 140.613281 250.050781 137.824219 249.921875 Z M 102.734375 248.265625 "/>
<path style=" stroke:none;fill-rule:nonzero;fill:rgb(33.725491%,36.078432%,57.647061%);fill-opacity:1;" d="M 204.398438 221.414062 C 205.328125 222.519531 204.074219 224.53125 201.609375 225.878906 L 187.039062 233.851562 C 184.574219 235.199219 184.324219 234.820312 186.488281 233.007812 L 198.78125 222.703125 C 200.941406 220.882812 203.46875 220.308594 204.398438 221.414062 Z M 204.398438 221.414062 "/>
<path style=" stroke:none;fill-rule:nonzero;fill:rgb(25.882354%,27.058825%,43.529412%);fill-opacity:1;" d="M 167.570312 154.902344 C 164.976562 155.964844 163.425781 154.566406 164.121094 151.796875 L 179.585938 90.121094 C 180.28125 87.347656 182.523438 86.675781 184.566406 88.628906 L 224.269531 126.605469 C 226.3125 128.558594 225.863281 131.023438 223.269531 132.085938 Z M 167.570312 154.902344 "/>
<path style=" stroke:none;fill-rule:nonzero;fill:rgb(33.725491%,36.078432%,57.647061%);fill-opacity:1;" d="M 228.027344 117.46875 C 228.519531 120.28125 227.261719 120.988281 225.21875 119.039062 L 187.429688 82.898438 C 185.386719 80.945312 185.449219 77.816406 187.5625 75.949219 L 212.386719 54.03125 C 214.503906 52.164062 216.644531 52.9375 217.136719 55.757812 Z M 228.027344 117.46875 "/>
<path style=" stroke:none;fill-rule:nonzero;fill:rgb(33.725491%,36.078432%,57.647061%);fill-opacity:1;" d="M 203.796875 204.21875 C 202.820312 206.902344 200.535156 207.324219 198.710938 205.152344 L 166.808594 167.1875 C 164.984375 165.015625 165.617188 162.375 168.210938 161.3125 L 223.589844 138.621094 C 226.1875 137.558594 227.511719 138.882812 226.535156 141.570312 Z M 203.796875 204.21875 "/>
<path style=" stroke:none;fill-rule:nonzero;fill:rgb(33.725491%,36.078432%,57.647061%);fill-opacity:1;" d="M 248.167969 97.765625 C 249.683594 100.171875 249.5625 104.015625 247.890625 106.308594 L 238.300781 119.480469 C 236.628906 121.777344 234.855469 121.347656 234.363281 118.53125 L 224.835938 64.523438 C 224.34375 61.707031 225.175781 61.371094 226.691406 63.769531 Z M 248.167969 97.765625 "/>
<path style=" stroke:none;fill-rule:nonzero;fill:rgb(33.725491%,36.078432%,57.647061%);fill-opacity:1;" d="M 242.304688 168.035156 C 243.1875 170.753906 242.21875 174.546875 240.148438 176.46875 L 213.996094 200.769531 C 211.925781 202.691406 211.03125 202.070312 212.003906 199.386719 L 231.59375 145.421875 C 232.566406 142.738281 234.085938 142.765625 234.972656 145.484375 Z M 242.304688 168.035156 "/>
<path style=" stroke:none;fill-rule:nonzero;fill:rgb(33.725491%,36.078432%,57.647061%);fill-opacity:1;" d="M 246.355469 154.105469 C 246.070312 156.953125 245.113281 157.0625 244.226562 154.34375 L 238.496094 136.710938 C 237.609375 133.992188 238.253906 129.898438 239.925781 127.601562 L 247.441406 117.285156 C 249.109375 114.992188 250.242188 115.441406 249.957031 118.292969 Z M 246.355469 154.105469 "/>
<path style=" stroke:none;fill-rule:nonzero;fill:rgb(33.725491%,36.078432%,57.647061%);fill-opacity:1;" d="M 213.699219 215.203125 C 212.03125 217.503906 209.90625 218.476562 208.976562 217.371094 C 208.046875 216.265625 208.980469 213.785156 211.050781 211.863281 L 222.8125 200.929688 C 224.882812 199.007812 225.214844 199.3125 223.550781 201.613281 Z M 213.699219 215.203125 "/>
<path style=" stroke:none;fill-rule:nonzero;fill:rgb(25.882354%,27.058825%,43.529412%);fill-opacity:1;" d="M 170.9375 72.421875 C 172.519531 74.78125 171.539062 76.949219 168.761719 77.246094 L 106.96875 83.785156 C 104.191406 84.078125 103.070312 82.296875 104.480469 79.824219 L 134.75 26.753906 C 136.160156 24.28125 138.605469 24.1875 140.1875 26.550781 Z M 170.9375 72.421875 "/>
<path style=" stroke:none;fill-rule:nonzero;fill:rgb(33.725491%,36.078432%,57.647061%);fill-opacity:1;" d="M 183.621094 71.253906 C 181.507812 73.121094 178.480469 72.722656 176.898438 70.359375 L 147.632812 26.703125 C 146.050781 24.34375 146.917969 23.167969 149.5625 24.085938 L 207.488281 44.261719 C 210.132812 45.183594 210.5625 47.464844 208.449219 49.335938 Z M 183.621094 71.253906 "/>
<path style=" stroke:none;fill-rule:nonzero;fill:rgb(33.725491%,36.078432%,57.647061%);fill-opacity:1;" d="M 158.222656 150.421875 C 157.523438 153.191406 155.46875 153.6875 153.644531 151.519531 L 105.679688 94.441406 C 103.859375 92.273438 104.636719 90.257812 107.417969 89.960938 L 170.128906 83.328125 C 172.90625 83.035156 174.609375 85.0625 173.914062 87.832031 Z M 158.222656 150.421875 "/>
<path style=" stroke:none;fill-rule:nonzero;fill:rgb(33.725491%,36.078432%,57.647061%);fill-opacity:1;" d="M 98.390625 78.222656 C 96.980469 80.695312 94.339844 80.941406 92.511719 78.773438 L 60.613281 40.8125 C 58.789062 38.644531 59.535156 36.386719 62.265625 35.796875 L 126.078125 22.027344 C 128.816406 21.4375 129.898438 22.980469 128.488281 25.449219 Z M 98.390625 78.222656 "/>
<path style=" stroke:none;fill-rule:nonzero;fill:rgb(33.725491%,36.078432%,57.647061%);fill-opacity:1;" d="M 149.472656 17.515625 C 146.828125 16.59375 146.679688 14.734375 149.140625 13.378906 L 163.269531 5.609375 C 165.730469 4.253906 169.457031 4.699219 171.550781 6.59375 L 201.167969 33.402344 C 203.261719 35.296875 202.808594 36.09375 200.167969 35.175781 Z M 149.472656 17.515625 "/>
<path style=" stroke:none;fill-rule:nonzero;fill:rgb(33.725491%,36.078432%,57.647061%);fill-opacity:1;" d="M 68.152344 28.195312 C 65.417969 28.785156 64.949219 27.78125 67.109375 25.972656 L 94.429688 3.0625 C 96.589844 1.25 100.394531 0.828125 102.886719 2.125 L 123.566406 12.902344 C 126.058594 14.199219 125.855469 15.746094 123.125 16.332031 Z M 68.152344 28.195312 "/>
<path style=" stroke:none;fill-rule:nonzero;fill:rgb(33.725491%,36.078432%,57.647061%);fill-opacity:1;" d="M 141.542969 10.523438 C 139.082031 11.875 135.03125 11.921875 132.542969 10.625 L 116.375 2.199219 C 113.886719 0.902344 114.132812 -0.0546875 116.921875 0.078125 L 152.011719 1.738281 C 154.800781 1.871094 155.070312 3.085938 152.609375 4.441406 Z M 141.542969 10.523438 "/>
<path style=" stroke:none;fill-rule:nonzero;fill:rgb(33.725491%,36.078432%,57.647061%);fill-opacity:1;" d="M 55.96875 27.308594 C 53.804688 29.121094 51.277344 29.699219 50.347656 28.59375 C 49.417969 27.484375 50.671875 25.476562 53.136719 24.128906 L 67.710938 16.15625 C 70.175781 14.808594 70.425781 15.1875 68.261719 17.003906 Z M 55.96875 27.308594 "/>
<path style=" stroke:none;fill-rule:nonzero;fill:rgb(33.725491%,36.078432%,57.647061%);fill-opacity:1;" d="M 37.257812 208.648438 C 38.335938 207.699219 40.753906 208.652344 42.628906 210.773438 L 53.296875 222.835938 C 55.171875 224.957031 54.875 225.296875 52.628906 223.589844 L 39.367188 213.488281 C 37.128906 211.78125 36.179688 209.601562 37.257812 208.648438 Z M 37.257812 208.648438 "/>
<path style=" stroke:none;fill-rule:nonzero;fill:rgb(33.725491%,36.078432%,57.647061%);fill-opacity:1;" d="M 221.433594 46.050781 C 222.511719 45.097656 224.476562 46.382812 225.789062 48.910156 L 233.570312 63.84375 C 234.882812 66.371094 234.515625 66.625 232.746094 64.40625 L 222.691406 51.8125 C 220.921875 49.597656 220.355469 47.003906 221.433594 46.050781 Z M 221.433594 46.050781 "/>
<path style=" stroke:none;fill-rule:nonzero;fill:rgb(33.725491%,36.078432%,57.647061%);fill-opacity:1;" d="M 215.378906 36.519531 C 217.617188 38.226562 218.570312 40.40625 217.492188 41.359375 C 216.414062 42.308594 213.996094 41.355469 212.121094 39.234375 L 201.453125 27.171875 C 199.578125 25.050781 199.875 24.710938 202.121094 26.421875 Z M 215.378906 36.519531 "/>
<path style=" stroke:none;fill-rule:nonzero;fill:rgb(33.725491%,36.078432%,57.647061%);fill-opacity:1;" d="M 32.0625 198.191406 C 33.828125 200.40625 34.394531 203 33.316406 203.953125 C 32.238281 204.90625 30.273438 203.621094 28.960938 201.09375 L 21.179688 186.15625 C 19.863281 183.628906 20.238281 183.375 22.003906 185.59375 Z M 32.0625 198.191406 "/>
</g>
</svg>
